build/images/icons/search.svg

<svg width="17" height="16" viewBox="0 0 17 16" fill="none" xmlns="http://www.w3.org/2000/svg">
<path opacity="0.5" fill-rule="evenodd" clip-rule="evenodd" d="M11.7541 10.0571H11.0104L10.7315 9.78286C11.6612 8.77714 12.2189 7.40571 12.2189 5.94286C12.2189 2.65143 9.52301 0 6.17636 0C2.8297 0 0.133789 2.65143 0.133789 5.94286C0.133789 9.23429 2.8297 11.8857 6.17636 11.8857C7.66376 11.8857 9.0582 11.3371 10.0808 10.4229L10.3597 10.6971V11.4286L15.0078 16L16.4022 14.6286L11.7541 10.0571ZM6.17635 10.0571C3.85229 10.0571 1.99303 8.22856 1.99303 5.94284C1.99303 3.65713 3.85229 1.82856 6.17635 1.82856C8.50042 1.82856 10.3597 3.65713 10.3597 5.94284C10.3597 8.22856 8.50042 10.0571 6.17635 10.0571Z" fill="#04405A"/>
</svg>

<svg width="17" height="16" fill="none" xmlns="http://www.w3.org/2000/svg"><path opacity=".5" fill-rule="evenodd" clip-rule="evenodd" d="M11.754 10.057h-.744l-.278-.274a5.67 5.67 0 001.487-3.84C12.219 2.65 9.523 0 6.176 0 2.83 0 .134 2.651.134 5.943c0 3.291 2.696 5.943 6.042 5.943 1.488 0 2.882-.549 3.905-1.463l.279.274v.732L15.008 16l1.394-1.371-4.648-4.572zm-5.578 0c-2.324 0-4.183-1.828-4.183-4.114 0-2.286 1.86-4.114 4.183-4.114 2.324 0 4.184 1.828 4.184 4.114 0 2.286-1.86 4.114-4.184 4.114z" fill="#04405A"/></svg>
